assets/img/components/pagination.svg

<svg width="272" height="143" viewBox="0 0 272 143" fill="none" xmlns="http://www.w3.org/2000/svg">
<rect width="272" height="143" rx="8" fill="#EDEDED"/>
<rect x="21.5" y="56.5" width="30" height="30" rx="3.5" fill="white" stroke="#A7A9AB"/>
<rect x="60.5" y="56.5" width="30" height="30" rx="3.5" fill="white" stroke="#A7A9AB"/>
<rect x="99" y="56" width="31" height="31" rx="4" fill="#154973"/>
<path d="M76.8931 78H74.7871V68.73L72.8251 70.764L71.6011 69.486L75.0571 65.994H76.8931V78Z" fill="#2D437F"/>
<path d="M34.7982 71.5L39.3453 76.0471C39.559 76.2608 39.6659 76.5329 39.6659 76.8632C39.6659 77.1936 39.559 77.4656 39.3453 77.6794C39.1315 77.8931 38.8595 78 38.5291 78C38.1988 78 37.9268 77.8931 37.713 77.6794L32.3498 72.3161C32.1166 72.083 32 71.8109 32 71.5C32 71.1891 32.1166 70.917 32.3498 70.6839L37.713 65.3206C37.9268 65.1069 38.1988 65 38.5291 65C38.8595 65 39.1315 65.1069 39.3453 65.3206C39.559 65.5344 39.6659 65.8064 39.6659 66.1368C39.6659 66.4671 39.559 66.7392 39.3453 66.9529L34.7982 71.5Z" fill="black"/>
<rect x="216.5" y="56.5" width="30" height="30" rx="3.5" fill="white" stroke="#A7A9AB"/>
<path d="M233.868 71.5L229.321 66.9529C229.107 66.7392 229 66.4671 229 66.1368C229 65.8064 229.107 65.5344 229.321 65.3206C229.534 65.1069 229.807 65 230.137 65C230.467 65 230.739 65.1069 230.953 65.3206L236.316 70.6839C236.549 70.917 236.666 71.1891 236.666 71.5C236.666 71.8109 236.549 72.083 236.316 72.3161L230.953 77.6794C230.739 77.8931 230.467 78 230.137 78C229.807 78 229.534 77.8931 229.321 77.6794C229.107 77.4656 229 77.1936 229 76.8632C229 76.5329 229.107 76.2608 229.321 76.0471L233.868 71.5Z" fill="black"/>
<path d="M117.991 78H109.297V76.344C113.959 72.816 115.777 71.25 115.777 69.522C115.777 68.262 114.697 67.686 113.599 67.686C112.195 67.686 111.115 68.262 110.359 69.126L109.135 67.74C110.197 66.462 111.889 65.814 113.563 65.814C115.885 65.814 117.919 67.128 117.919 69.522C117.919 71.736 115.885 73.716 112.663 76.146H117.991V78Z" fill="white"/>
<path d="M147.708 78.198C147.024 78.198 146.448 77.622 146.448 76.938C146.448 76.254 147.024 75.678 147.708 75.678C148.392 75.678 148.968 76.254 148.968 76.938C148.968 77.622 148.392 78.198 147.708 78.198ZM153.74 78.198C153.056 78.198 152.48 77.622 152.48 76.938C152.48 76.254 153.056 75.678 153.74 75.678C154.424 75.678 155 76.254 155 76.938C155 77.622 154.424 78.198 153.74 78.198ZM159.772 78.198C159.088 78.198 158.512 77.622 158.512 76.938C158.512 76.254 159.088 75.678 159.772 75.678C160.456 75.678 161.032 76.254 161.032 76.938C161.032 77.622 160.456 78.198 159.772 78.198Z" fill="black"/>
<rect x="177.5" y="56.5" width="30" height="30" rx="3.5" fill="white" stroke="#A7A9AB"/>
<path d="M192.442 78H190.138L194.674 67.848H188.446V65.994H197.104V67.452L192.442 78Z" fill="#2D437F"/>
</svg>

<svg xmlns="http://www.w3.org/2000/svg" width="272" height="143" fill="none" viewBox="0 0 272 143"><rect width="272" height="143" fill="#ededed" rx="8"/><rect width="30" height="30" x="21.5" y="56.5" fill="#fff" stroke="#a7a9ab" rx="3.5"/><rect width="30" height="30" x="60.5" y="56.5" fill="#fff" stroke="#a7a9ab" rx="3.5"/><rect width="31" height="31" x="99" y="56" fill="#154973" rx="4"/><path fill="#2d437f" d="M76.893 78h-2.106v-9.27l-1.962 2.034-1.224-1.278 3.456-3.492h1.836z"/><path fill="#000" d="m34.798 71.5 4.547 4.547q.32.321.32.816 0 .496-.32.816-.32.321-.816.321t-.816-.32l-5.363-5.364A1.12 1.12 0 0 1 32 71.5q0-.466.35-.816l5.363-5.363q.321-.321.816-.321t.816.32q.32.32.32.817 0 .495-.32.816z"/><rect width="30" height="30" x="216.5" y="56.5" fill="#fff" stroke="#a7a9ab" rx="3.5"/><path fill="#000" d="m233.868 71.5-4.547-4.547a1.1 1.1 0 0 1-.321-.816q0-.496.321-.816.32-.321.816-.321t.816.32l5.363 5.364q.35.35.35.816t-.35.816l-5.363 5.363q-.321.321-.816.321-.496 0-.816-.32a1.1 1.1 0 0 1-.321-.817q0-.495.321-.816z"/><path fill="#fff" d="M117.991 78h-8.694v-1.656c4.662-3.528 6.48-5.094 6.48-6.822 0-1.26-1.08-1.836-2.178-1.836-1.404 0-2.484.576-3.24 1.44l-1.224-1.386c1.062-1.278 2.754-1.926 4.428-1.926 2.322 0 4.356 1.314 4.356 3.708 0 2.214-2.034 4.194-5.256 6.624h5.328z"/><path fill="#000" d="M147.708 78.198c-.684 0-1.26-.576-1.26-1.26s.576-1.26 1.26-1.26 1.26.576 1.26 1.26-.576 1.26-1.26 1.26m6.032 0c-.684 0-1.26-.576-1.26-1.26s.576-1.26 1.26-1.26 1.26.576 1.26 1.26-.576 1.26-1.26 1.26m6.032 0c-.684 0-1.26-.576-1.26-1.26s.576-1.26 1.26-1.26 1.26.576 1.26 1.26-.576 1.26-1.26 1.26"/><rect width="30" height="30" x="177.5" y="56.5" fill="#fff" stroke="#a7a9ab" rx="3.5"/><path fill="#2d437f" d="M192.442 78h-2.304l4.536-10.152h-6.228v-1.854h8.658v1.458z"/></svg>
